X: 71
T: POLKA: Ballydesmond No. 1
C: C: Trad.; S: Various
C: Set Leaders: Andrey, Olya, Vova, Anton
Z: Anton Zille ed., Oleg Naumov arr.; ceolachan at The Session
N: https://thesession.org/members/26966/sets/96720
R: Polka
M: 2/4
L: 1/8
Q: 1/4=140
K: Ador
|:"Am"EA A>B|"Am"cd e2|"G"G>F GA|"Em"GE ED|
"Am"EA AB|"C"cd e>f|"G"ge dB|1 "Em"A2 A/B/A/G/:|2 "Am"A2 Ae||
|:"Am"a>g ab|"Am"ag ef|"G"g>f ga|"Em"ge ed|
"Am"ea a>b|"Am"ag e>f|"G"ge dB|1 "Em"A2 A2:|2 "Am"A2 A/B/A/G/||

